X: 16441
T: Hag At The Churn, The
R: jig
M: 6/8
K: Dmixolydian
|:AAG ADD|AAG Adc|A2G ADD|EFG EFG:|
AdB c2d|Add efg|AdB cBG|E2E GED|
AdB c2d|Add efg|fge dcA|GEF GED||

